X:1
T:Title
%%score { ( 1 3 4 ) | ( 2 5 ) }
L:1/8
M:4/4
K:C
V:1 treble nm="Grand Piano"
V:3 treble 
V:4 treble 
V:2 bass 
V:5 bass 
V:1
 z4 z2[Q:1/4=100] [EG][EG] | [Ec][Ec][Ec][Gc] cBAB |[M:3/4] [Ec][Ec] [FB][FA] [EG]2 | %3
[M:1/4] [EG][Gc] |[M:4/4] BBBB BAGA |[M:3/4] [EG][EG] [EG][DF] [CE]2 |[M:1/4] [EG][EG] | %7
[M:4/4] [Ec][Ec][Ec][Gc] cBAB |[M:3/4] [Ec][Ec] [FB][B,FA] [CEG]2 |[M:1/4] [EG][EGA] | %10
[M:4/4] [DGB]D[DGB][DAc] [DBd][DGB][DBd][ce] |[M:3/4] [Bd][Ac] [GB][^FA] G2 |[M:1/4] GG | %13
[M:4/4] e4 c4 | cdcA [EG]2 [CE][EG] | [Ec][Ec][Ec][Ec] [Ec][Gc][FB][Ec] | z2 B,2 z fe_e | %17
 [Ge]4 c4 | cdcA [EG]2 [CE][EG] | [Ec][Ec][^Fc][Fc] [Ge]2 [=Fd]2 |[M:3/4] [Ec]6 |] %21
V:2
 z4 z2 [C,C][C,C] | [C,G,][C,G,][C,G,][E,C][K:treble] [G,DF][G,DF][G,DF][G,DF] | %2
[M:3/4][K:bass] [C,C][C,G,] [C,A,][C,B,] [C,C]2 |[M:1/4] [C,C][E,C] | %4
[M:4/4][K:treble] [G,DF][G,DF][G,DF][G,DF] [G,DF][G,CF][G,B,F][G,B,F] | %5
[M:3/4][K:bass] [C,C][C,C] [C,C][C,G,] [C,G,]2 |[M:1/4] [C,C][C,C] | %7
[M:4/4] [C,G,][C,G,][C,G,][E,C][K:treble] [G,DF][G,DF][G,DF][G,DF] | %8
[M:3/4][K:bass] [C,C][C,G,] [C,A,]C, C,2 |[M:1/4] C,C, |[M:4/4] D,^F,G,G, G,G,G,[G,D] | %11
[M:3/4] [D,D][D,D] [D,D][D,C] [G,B,]2 |[M:1/4] [G,B,][G,B,] | %13
[M:4/4] [C,C][C,C][C,C][C,C] [C,G,][C,G,][E,_B,][E,B,] | %14
 [F,A,F][F,A,F][F,A,F][F,CF] [C,C]2 [C,G,][C,C] | [C,G,][C,G,][C,G,][C,G,] [C,G,][E,C][D,G,][C,C] | %16
 [G,B,]2 G,2 z[K:treble] AG^F | [C,C]C,C,C, [C,G,]C,[E,_B,]E, | %18
 [F,A,F][F,A,F][F,A,F][F,CF] [C,C]2 [C,G,][C,C] | [C,C][C,C][C,C][C,C] [G,,C]2 [G,,B,]2 | %20
[M:3/4] [C,C]6 |] %21
V:3
 x8 | x8 |[M:3/4] x6 |[M:1/4] x2 |[M:4/4] x8 |[M:3/4] x6 |[M:1/4] x2 |[M:4/4] x8 |[M:3/4] x6 | %9
[M:1/4] x2 |[M:4/4] x8 |[M:3/4] x6 |[M:1/4] x2 |[M:4/4] GGGG EEGG | x8 | x8 | [Gd]6 z2 | z4 z2 G2 | %18
 x8 | x8 |[M:3/4] x6 |] %21
V:4
 x8 | x8 |[M:3/4] x6 |[M:1/4] x2 |[M:4/4] x8 |[M:3/4] x6 |[M:1/4] x2 |[M:4/4] x8 |[M:3/4] x6 | %9
[M:1/4] x2 |[M:4/4] x8 |[M:3/4] x6 |[M:1/4] x2 |[M:4/4] x8 | x8 | x8 | z4 B,2 z2 | %17
 z CCC E-[G,E] z _B, | x8 | x8 |[M:3/4] x6 |] %21
V:5
 x8 | x4[K:treble] x4 |[M:3/4][K:bass] x6 |[M:1/4] x2 |[M:4/4][K:treble] x8 |[M:3/4][K:bass] x6 | %6
[M:1/4] x2 |[M:4/4] x4[K:treble] x4 |[M:3/4][K:bass] x6 |[M:1/4] x2 |[M:4/4] x8 |[M:3/4] x6 | %12
[M:1/4] x2 |[M:4/4] x8 | x8 | x8 | z4 G,2[K:treble] z2 | x8 | x8 | x8 |[M:3/4] x6 |] %21

